assets/icons/qvision/hail.svg

<svg xmlns="http://www.w3.org/2000/svg" height="24" viewBox="0 0 24 24" width="24"><path d="M0 0h24v24H0z" fill="none"/><path d="M12 6c-1.1 0-2-.9-2-2s.9-2 2-2 2 .9 2 2-.9 2-2 2zm5-4h2v.4c-.1 2.2-.8 3.9-2.3 5.1-.5.4-1.1.7-1.7.9V22h-2v-6h-2v6H9V10.1c-.3.1-.5.2-.6.3-.9.7-1.39 1.6-1.4 3.1v.5H5v-.5c0-2 .71-3.59 2.11-4.79C8.21 7.81 10 7 12 7s2.68-.46 3.48-1.06C16.48 5.14 17 4 17 2.5V2zM4 16h3v6H4v-6z"/></svg>

<svg width="24" height="24" viewBox="0 0 24 24" fill="none" xmlns="http://www.w3.org/2000/svg">
<g clip-path="url(#clip0_147_5301)">
<path d="M12 6C10.9 6 10 5.1 10 4C10 2.9 10.9 2 12 2C13.1 2 14 2.9 14 4C14 5.1 13.1 6 12 6ZM17 2H19V2.4C18.9 4.6 18.2 6.3 16.7 7.5C16.2 7.9 15.6 8.2 15 8.4V22H13V16H11V22H9V10.1C8.7 10.2 8.5 10.3 8.4 10.4C7.5 11.1 7.01 12 7 13.5V14H5V13.5C5 11.5 5.71 9.91 7.11 8.71C8.21 7.81 10 7 12 7C14 7 14.68 6.54 15.48 5.94C16.48 5.14 17 4 17 2.5V2ZM4 16H7V22H4V16Z" fill="#323232"/>
</g>
<defs>
<clipPath id="clip0_147_5301">
<rect width="24" height="24" fill="white"/>
</clipPath>
</defs>
</svg>
